Numix/48x48/categories/applications-geography.svg

<?xml version="1.0" encoding="UTF-8" standalone="no"?>
<svg
   xmlns:dc="http://purl.org/dc/elements/1.1/"
   xmlns:cc="http://creativecommons.org/ns#"
   xmlns:rdf="http://www.w3.org/1999/02/22-rdf-syntax-ns#"
   xmlns:svg="http://www.w3.org/2000/svg"
   xmlns="http://www.w3.org/2000/svg"
   xmlns:sodipodi="http://sodipodi.sourceforge.net/DTD/sodipodi-0.dtd"
   xmlns:inkscape="http://www.inkscape.org/namespaces/inkscape"
   width="48"
   height="48"
   viewBox="0 0 38.4 38.4"
   id="svg2"
   version="1.1"
   inkscape:version="0.91 r"
   sodipodi:docname="applications-geography.svg">
  <metadata
     id="metadata22">
    <rdf:RDF>
      <cc:Work
         rdf:about="">
        <dc:format>image/svg+xml</dc:format>
        <dc:type
           rdf:resource="http://purl.org/dc/dcmitype/StillImage" />
        <dc:title />
      </cc:Work>
    </rdf:RDF>
  </metadata>
  <sodipodi:namedview
     pagecolor="#ffffff"
     bordercolor="#666666"
     borderopacity="1"
     objecttolerance="10"
     gridtolerance="10"
     guidetolerance="10"
     inkscape:pageopacity="0"
     inkscape:pageshadow="2"
     inkscape:window-width="1920"
     inkscape:window-height="1056"
     id="namedview20"
     showgrid="false"
     inkscape:zoom="4.9684211"
     inkscape:cx="23.75"
     inkscape:cy="23.75"
     inkscape:window-x="0"
     inkscape:window-y="24"
     inkscape:window-maximized="1"
     inkscape:current-layer="svg2" />
  <defs
     id="defs4">
    <clipPath
       id="clip1">
      <path
         d="M 5,5 33,5 33,33 5,33 Z"
         id="path7"
         inkscape:connector-curvature="0" />
    </clipPath>
    <clipPath
       id="clip2">
      <path
         d="m 19,32.414062 c 7.449219,0 13.496094,-6.070312 13.496094,-13.515624 C 32.496094,11.5 26.449219,5.429688 19,5.429688 11.601562,5.429688 5.503906,11.5 5.503906,18.898438 5.503906,26.34375 11.601562,32.414062 19,32.414062 Z"
         id="path10"
         inkscape:connector-curvature="0" />
    </clipPath>
  </defs>
  <path
     style="fill:#78b3a3"
     d="M 19.196106,4.4 C 15.270211,4.4 11.562421,5.9427217 8.7582108,8.7437749 5.9501058,11.544828 4.4,15.249697 4.4,19.176625 4.4,27.349934 11.036632,34 19.196106,34 27.359474,34 34,27.349934 34,19.176625 34,11.030587 27.359474,4.4 19.196106,4.4 Z m 0,0.6077389 c 7.824526,0 14.192421,6.3578831 14.192421,14.1688861 0,7.838274 -6.367895,14.215636 -14.192421,14.215636 -7.820632,0 -14.1846326,-6.377362 -14.1846326,-14.215636 0,-3.763306 1.4838945,-7.312345 4.1751579,-10.0004203 C 11.877895,6.4920239 15.433789,5.0077389 19.196106,5.0077389 Z"
     id="path12"
     inkscape:connector-curvature="0" />
  <g
     style="clip-rule:nonzero"
     id="g14"
     clip-path="url(#clip1)"
     transform="matrix(0.99705263,0,0,0.99731507,0.256,0.25101374)">
    <g
       id="g16"
       clip-path="url(#clip2)">
      <path
         style="fill:#78b3a3"
         d="m 14.425781,6.667969 c -0.07031,0 -0.144531,0.027343 -0.21875,0.070312 0.175781,-0.054687 0.261719,-0.070312 0.21875,-0.070312 m 4.433594,0.863281 0.04297,-0.648438 -0.683594,0.042969 0.08984,0.605469 0.550781,0 m -7.726563,11.210938 c -0.136718,-0.128907 -0.04687,-0.691407 -0.04687,-0.691407 0,0 -2.054688,-1.082031 -4.296876,-1.734375 C 6.515625,16.238281 6.65625,15.667969 6.925781,15.453125 L 6.835938,14.847656 C 6.789062,14.542969 7.292969,13.070312 7.796875,12.941406 8.300781,12.8125 7.75,13.808594 7.75,13.808594 l -0.5,0.300781 c 0,0 0.59375,0.695313 0.730469,0.695313 0.136719,0 0.367187,-0.347657 0.367187,-0.347657 L 7.707031,14.023438 8.300781,13.765625 8.339844,13.535156 8.4375,13.503906 9.421875,12.015625 c 0.679687,-0.28125 1.515625,-0.625 1.621094,-0.675781 0.183593,-0.08594 1.464843,-0.820313 1.691406,-0.992188 0.230469,-0.175781 0.730469,-0.128906 0.914063,-0.128906 0.183593,0 0.457031,-0.08984 0.503906,-0.566406 0.04297,-0.476563 0.226562,-0.5625 0.363281,-0.429688 0.140625,0.125 -0.136719,0.34375 0.183594,0.429688 0.320312,0.085937 0.59375,0.304687 0.824219,0.085937 0.167968,-0.15625 -0.05859,-0.335937 -0.207032,-0.472656 l 2.539063,0 0.273437,-0.78125 -0.59375,-0.085937 -2.195312,-0.21875 0,-0.257813 -0.175782,0.03125 C 15.402344,6.644531 16.8125,6.863281 15.75,6.105469 15.6875,6.058594 14.757812,7.570312 14.519531,7.539062 14.09375,7.484375 13.539062,7.480469 13.421875,7.617188 c -0.15625,0.1875 0.347656,-0.632813 0.785156,-0.878907 -0.519531,0.152344 -1.453125,-0.320312 -3.132812,0.867188 -0.570313,0.402343 -1.996094,2.03125 -2.585938,2.65625 -2.480469,2.929687 -2.679687,5.433593 -2.679687,5.542969 0,0.21875 0.527344,0.339843 0.570312,0.601562 0.046875,0.257812 -0.867187,1.125 -0.867187,1.554688 0,0.199218 -0.457031,2.359374 0.546875,5.0625 0.890625,2.566406 2.617187,4.828124 2.839844,4.96875 L 9.53125,27.65625 c 0,0 -1.050781,-1.859375 -1.09375,-2.035156 -0.046875,-0.171875 1.1875,-2.683594 1.78125,-2.59375 0.59375,0.08203 0.457031,0.257812 0.824219,0.04297 0.363281,-0.214843 0.59375,-1.992187 1.003906,-2.164062 0.414063,-0.175781 0.867187,-0.390625 0.824219,-0.824219 -0.04687,-0.433593 -1.601563,-1.210937 -1.738282,-1.339843 M 21.054688,6.019531 19.820312,5.585938 20.046875,6.277344 21.054688,6.019531 M 16.4375,7.617188 c 0.136719,0 2.878906,-1.816407 2.605469,-1.859376 -0.273438,-0.042968 -0.320313,0 -1.054688,-0.085937 -0.730469,-0.085937 -1.507812,1.039063 -1.691406,1.210937 -0.179687,0.175782 -0.121094,0.734376 0.140625,0.734376 m 12.582031,13.050781 0.355469,-0.457031 -0.355469,-0.125 -0.261719,0.332031 -0.3125,0.457031 0.265626,0.125 0.308593,-0.332031 m 1.550781,1.503906 -0.08984,-0.667969 -0.574219,0 -0.04297,0.5 -0.53125,-0.08203 -0.132812,-0.542969 -0.265625,-0.167968 -0.3125,0.375 -0.308594,-0.08203 -0.08984,0.289063 0.355469,0.08594 0,2.710938 1.253906,0.300781 c -0.03125,0.05078 -0.05078,0.09375 -0.05859,0.113281 -0.08984,0.292969 0.351562,0.421875 0.664062,0.292969 0.113281,-0.04297 0.835938,-0.324219 1.0625,-0.867187 0.320312,-0.757813 0.527344,-1.851563 0.582031,-2.203126 l -0.140625,-0.304687 -0.886718,0.332031 -0.488282,-0.08203 0.0039,0 M 30.125,11.070312 C 28.101562,8.003906 23.238281,5.996094 23.238281,5.996094 l -1.25,0.65625 -0.179687,-0.289063 -0.441406,-0.167969 0,0.375 0.398437,0.335938 -0.265625,0.125 -1.015625,0.082031 -2.300781,1.25 0.21875,1.003907 -0.265625,0.082031 -0.128907,0.207031 0.75,1.125 0.04297,0.378906 -0.617187,0.125 0,0.75 -0.355469,0.08203 0.04687,0.585937 -3.011719,2.085937 0.08984,1.164063 C 15.175781,16.246094 16.898438,18 16.898438,18 c 0,0 1.992187,0.08203 2.433593,-0.167969 0.445313,-0.25 0.132813,0.25 0.265625,0.375 0.132813,0.125 0.179688,1 0.308594,1.085938 0.136719,0.08203 0,0.582031 0.179688,0.75 0.175781,0.167969 0.175781,2.167969 0.175781,2.167969 0,0 1.0625,1.792968 1.0625,2.253906 0,0.457031 -0.04687,0.414062 0.796875,0.375 0.839844,-0.04297 1.015625,-0.375 1.195312,-0.5 0.175782,-0.125 0.175782,-0.417969 0.351563,-0.667969 0.179687,-0.25 0.488281,-1.207031 0.886719,-1.542969 0.398437,-0.335937 1.460937,-0.585937 1.546874,-1.167968 0.08984,-0.585938 0.488282,-1.042969 0.488282,-1.042969 L 28.5,17.894531 28.449219,18.167969 28.402344,19.210938 28.980469,19 28.933594,17.875 28.730469,17.65625 28.757812,17.625 c 0,0 -0.132812,-0.25 -0.308593,-0.25 -0.175781,0 -1.238281,0.25 -1.417969,0.207031 -0.175781,-0.04297 -0.925781,-2.042969 -1.058594,-2.125 -0.136718,-0.08594 -0.976562,-1.460937 -0.976562,-1.460937 0,0 1.949218,2.335937 2.257812,3.253906 0.179688,0.53125 0.855469,0.03516 1.40625,-0.523438 L 28.804688,17.082031 29.15625,17 l -0.04297,-0.417969 0.398438,0 0,0.625 -0.132813,0.335938 -0.04687,0.539062 L 29.6875,18.417969 29.863281,18.125 30.4375,17.582031 31.101562,17.25 l 0.175782,0.332031 0.08984,0.460938 -0.175782,0.5 -0.355468,0.292969 -0.175782,0.75 0,0.375 -0.398437,-0.25 -0.04297,-0.792969 -0.578125,0.04297 -0.261719,0.707031 0.398438,0.585937 0.925781,0.125 0.753906,-0.710937 0.08594,-1.371094 0.335937,-0.445313 c 0.21875,0.5625 0.375,1.148438 0.375,1.695313 0,0.597656 0.472656,-0.304687 0.242188,-2.128906 0,-0.0039 -0.367188,-4.339844 -2.371094,-6.347657 z m -8.847656,1.796876 -2.386719,-0.08203 1.015625,-0.835937 0.53125,0 0.839844,0.585937 0,0.332032 m 2.921875,-0.289063 0,0.375 -1.015625,0 0.08594,0.25 -0.617187,0.08203 -0.04687,0.207032 -0.441407,-0.08203 -0.796874,-0.164062 0.132812,-0.210938 0.132812,-0.25 0.445313,-0.460937 0.175781,0.335937 0.664063,-0.04297 0.351562,-0.375 1.375,0.25 -0.445312,0.08594 m 0.08594,-0.542969 -0.527344,0.08203 -0.08984,-0.375 0.664062,-0.08203 0.08984,-0.378906 0.484375,0.503906 -0.621094,0.25 m 2.570313,12.96875 -0.3125,0.253906 0.04297,0.625 0.398437,0 0,-0.542968 0.355469,-0.460938 0,-0.957031 -0.222656,-0.04297 -0.261719,1.125 m -2.964844,-1.25 c 0,0 -0.3125,0.08203 0.04297,0.210938 0.351562,0.125 1.769531,-2.042969 1.769531,-2.042969 l -1.195313,0.75 -0.617187,1.082031 M 21.480469,31.75 21.214844,31.496094 20.6875,31.414062 l -0.08984,0.253907 -0.707031,-0.08594 -0.04687,-0.335937 -0.53125,0 -0.574219,0.335937 -1.015625,0 -0.08984,-0.25 L 16,31.160156 l -0.265625,0.253906 -0.664063,-0.167968 -0.08984,-0.585938 -0.308594,-0.04687 -0.355469,0.632813 -1.191406,-0.04297 c 0.214844,0.101563 1.996094,1.164063 4.730469,1.386719 3.625,0.292968 5.351562,-0.585938 5.351562,-0.585938 L 23.074219,31.875 Z"
         id="path18"
         inkscape:connector-curvature="0" />
    </g>
  </g>
</svg>

<svg width="47.5" xmlns="http://www.w3.org/2000/svg" height="47.5" viewBox="0 0 38 38" xmlns:xlink="http://www.w3.org/1999/xlink">
<defs>
<clipPath id="clip1">
<path d="M 5 5 L 33 5 L 33 33 L 5 33 Z "/>
</clipPath>
<clipPath id="clip2">
<path d="M 19 32.414062 C 26.449219 32.414062 32.496094 26.34375 32.496094 18.898438 C 32.496094 11.5 26.449219 5.429688 19 5.429688 C 11.601562 5.429688 5.503906 11.5 5.503906 18.898438 C 5.503906 26.34375 11.601562 32.414062 19 32.414062 Z "/>
</clipPath>
</defs>
<path style="fill:#78b3a3" d="M 18.996094 4.160156 C 15.058594 4.160156 11.339844 5.707031 8.527344 8.515625 C 5.710938 11.324219 4.15625 15.039062 4.15625 18.976562 C 4.15625 27.171875 10.8125 33.839844 18.996094 33.839844 C 27.183594 33.839844 33.84375 27.171875 33.84375 18.976562 C 33.84375 10.808594 27.183594 4.160156 18.996094 4.160156 Z M 18.996094 4.769531 C 26.84375 4.769531 33.230469 11.144531 33.230469 18.976562 C 33.230469 26.835938 26.84375 33.230469 18.996094 33.230469 C 11.152344 33.230469 4.769531 26.835938 4.769531 18.976562 C 4.769531 15.203125 6.257812 11.644531 8.957031 8.949219 C 11.65625 6.257812 15.222656 4.769531 18.996094 4.769531 Z "/>
<g style="clip-rule:nonzero;clip-path:url(#clip1)">
<g style="clip-path:url(#clip2)">
<path style="fill:#78b3a3" d="M 14.425781 6.667969 C 14.355469 6.667969 14.28125 6.695312 14.207031 6.738281 C 14.382812 6.683594 14.46875 6.667969 14.425781 6.667969 M 18.859375 7.53125 L 18.902344 6.882812 L 18.21875 6.925781 L 18.308594 7.53125 L 18.859375 7.53125 M 11.132812 18.742188 C 10.996094 18.613281 11.085938 18.050781 11.085938 18.050781 C 11.085938 18.050781 9.03125 16.96875 6.789062 16.316406 C 6.515625 16.238281 6.65625 15.667969 6.925781 15.453125 L 6.835938 14.847656 C 6.789062 14.542969 7.292969 13.070312 7.796875 12.941406 C 8.300781 12.8125 7.75 13.808594 7.75 13.808594 L 7.25 14.109375 C 7.25 14.109375 7.84375 14.804688 7.980469 14.804688 C 8.117188 14.804688 8.347656 14.457031 8.347656 14.457031 L 7.707031 14.023438 L 8.300781 13.765625 L 8.339844 13.535156 L 8.4375 13.503906 L 9.421875 12.015625 C 10.101562 11.734375 10.9375 11.390625 11.042969 11.339844 C 11.226562 11.253906 12.507812 10.519531 12.734375 10.347656 C 12.964844 10.171875 13.464844 10.21875 13.648438 10.21875 C 13.832031 10.21875 14.105469 10.128906 14.152344 9.652344 C 14.195312 9.175781 14.378906 9.089844 14.515625 9.222656 C 14.65625 9.347656 14.378906 9.566406 14.699219 9.652344 C 15.019531 9.738281 15.292969 9.957031 15.523438 9.738281 C 15.691406 9.582031 15.464844 9.402344 15.316406 9.265625 L 17.855469 9.265625 L 18.128906 8.484375 L 17.535156 8.398438 L 15.339844 8.179688 L 15.339844 7.921875 L 15.164062 7.953125 C 15.402344 6.644531 16.8125 6.863281 15.75 6.105469 C 15.6875 6.058594 14.757812 7.570312 14.519531 7.539062 C 14.09375 7.484375 13.539062 7.480469 13.421875 7.617188 C 13.265625 7.804688 13.769531 6.984375 14.207031 6.738281 C 13.6875 6.890625 12.753906 6.417969 11.074219 7.605469 C 10.503906 8.007812 9.078125 9.636719 8.488281 10.261719 C 6.007812 13.191406 5.808594 15.695312 5.808594 15.804688 C 5.808594 16.023438 6.335938 16.144531 6.378906 16.40625 C 6.425781 16.664062 5.511719 17.53125 5.511719 17.960938 C 5.511719 18.160156 5.054688 20.320312 6.058594 23.023438 C 6.949219 25.589844 8.675781 27.851562 8.898438 27.992188 L 9.53125 27.65625 C 9.53125 27.65625 8.480469 25.796875 8.4375 25.621094 C 8.390625 25.449219 9.625 22.9375 10.21875 23.027344 C 10.8125 23.109375 10.675781 23.285156 11.042969 23.070312 C 11.40625 22.855469 11.636719 21.078125 12.046875 20.90625 C 12.460938 20.730469 12.914062 20.515625 12.871094 20.082031 C 12.824219 19.648438 11.269531 18.871094 11.132812 18.742188 M 21.054688 6.019531 L 19.820312 5.585938 L 20.046875 6.277344 L 21.054688 6.019531 M 16.4375 7.617188 C 16.574219 7.617188 19.316406 5.800781 19.042969 5.757812 C 18.769531 5.714844 18.722656 5.757812 17.988281 5.671875 C 17.257812 5.585938 16.480469 6.710938 16.296875 6.882812 C 16.117188 7.058594 16.175781 7.617188 16.4375 7.617188 M 29.019531 20.667969 L 29.375 20.210938 L 29.019531 20.085938 L 28.757812 20.417969 L 28.445312 20.875 L 28.710938 21 L 29.019531 20.667969 M 30.570312 22.171875 L 30.480469 21.503906 L 29.90625 21.503906 L 29.863281 22.003906 L 29.332031 21.921875 L 29.199219 21.378906 L 28.933594 21.210938 L 28.621094 21.585938 L 28.3125 21.503906 L 28.222656 21.792969 L 28.578125 21.878906 L 28.578125 24.589844 L 29.832031 24.890625 C 29.800781 24.941406 29.78125 24.984375 29.773438 25.003906 C 29.683594 25.296875 30.125 25.425781 30.4375 25.296875 C 30.550781 25.253906 31.273438 24.972656 31.5 24.429688 C 31.820312 23.671875 32.027344 22.578125 32.082031 22.226562 L 31.941406 21.921875 L 31.054688 22.253906 L 30.566406 22.171875 L 30.570312 22.171875 M 30.125 11.070312 C 28.101562 8.003906 23.238281 5.996094 23.238281 5.996094 L 21.988281 6.652344 L 21.808594 6.363281 L 21.367188 6.195312 L 21.367188 6.570312 L 21.765625 6.90625 L 21.5 7.03125 L 20.484375 7.113281 L 18.183594 8.363281 L 18.402344 9.367188 L 18.136719 9.449219 L 18.007812 9.65625 L 18.757812 10.78125 L 18.800781 11.160156 L 18.183594 11.285156 L 18.183594 12.035156 L 17.828125 12.117188 L 17.875 12.703125 L 14.863281 14.789062 L 14.953125 15.953125 C 15.175781 16.246094 16.898438 18 16.898438 18 C 16.898438 18 18.890625 18.082031 19.332031 17.832031 C 19.777344 17.582031 19.464844 18.082031 19.597656 18.207031 C 19.730469 18.332031 19.777344 19.207031 19.90625 19.292969 C 20.042969 19.375 19.90625 19.875 20.085938 20.042969 C 20.261719 20.210938 20.261719 22.210938 20.261719 22.210938 C 20.261719 22.210938 21.324219 24.003906 21.324219 24.464844 C 21.324219 24.921875 21.277344 24.878906 22.121094 24.839844 C 22.960938 24.796875 23.136719 24.464844 23.316406 24.339844 C 23.492188 24.214844 23.492188 23.921875 23.667969 23.671875 C 23.847656 23.421875 24.15625 22.464844 24.554688 22.128906 C 24.953125 21.792969 26.015625 21.542969 26.101562 20.960938 C 26.191406 20.375 26.589844 19.917969 26.589844 19.917969 L 28.5 17.894531 L 28.449219 18.167969 L 28.402344 19.210938 L 28.980469 19 L 28.933594 17.875 L 28.730469 17.65625 L 28.757812 17.625 C 28.757812 17.625 28.625 17.375 28.449219 17.375 C 28.273438 17.375 27.210938 17.625 27.03125 17.582031 C 26.855469 17.539062 26.105469 15.539062 25.972656 15.457031 C 25.835938 15.371094 24.996094 13.996094 24.996094 13.996094 C 24.996094 13.996094 26.945312 16.332031 27.253906 17.25 C 27.433594 17.78125 28.109375 17.285156 28.660156 16.726562 L 28.804688 17.082031 L 29.15625 17 L 29.113281 16.582031 L 29.511719 16.582031 L 29.511719 17.207031 L 29.378906 17.542969 L 29.332031 18.082031 L 29.6875 18.417969 L 29.863281 18.125 L 30.4375 17.582031 L 31.101562 17.25 L 31.277344 17.582031 L 31.367188 18.042969 L 31.191406 18.542969 L 30.835938 18.835938 L 30.660156 19.585938 L 30.660156 19.960938 L 30.261719 19.710938 L 30.21875 18.917969 L 29.640625 18.960938 L 29.378906 19.667969 L 29.777344 20.253906 L 30.703125 20.378906 L 31.457031 19.667969 L 31.542969 18.296875 L 31.878906 17.851562 C 32.097656 18.414062 32.253906 19 32.253906 19.546875 C 32.253906 20.144531 32.726562 19.242188 32.496094 17.417969 C 32.496094 17.414062 32.128906 13.078125 30.125 11.070312 Z M 21.277344 12.867188 L 18.890625 12.785156 L 19.90625 11.949219 L 20.4375 11.949219 L 21.277344 12.535156 L 21.277344 12.867188 M 24.199219 12.578125 L 24.199219 12.953125 L 23.183594 12.953125 L 23.269531 13.203125 L 22.652344 13.285156 L 22.605469 13.492188 L 22.164062 13.410156 L 21.367188 13.246094 L 21.5 13.035156 L 21.632812 12.785156 L 22.078125 12.324219 L 22.253906 12.660156 L 22.917969 12.617188 L 23.269531 12.242188 L 24.644531 12.492188 L 24.199219 12.578125 M 24.285156 12.035156 L 23.757812 12.117188 L 23.667969 11.742188 L 24.332031 11.660156 L 24.421875 11.28125 L 24.90625 11.785156 L 24.285156 12.035156 M 26.855469 25.003906 L 26.542969 25.257812 L 26.585938 25.882812 L 26.984375 25.882812 L 26.984375 25.339844 L 27.339844 24.878906 L 27.339844 23.921875 L 27.117188 23.878906 L 26.855469 25.003906 M 23.890625 23.753906 C 23.890625 23.753906 23.578125 23.835938 23.933594 23.964844 C 24.285156 24.089844 25.703125 21.921875 25.703125 21.921875 L 24.507812 22.671875 L 23.890625 23.753906 M 21.480469 31.75 L 21.214844 31.496094 L 20.6875 31.414062 L 20.597656 31.667969 L 19.890625 31.582031 L 19.84375 31.246094 L 19.3125 31.246094 L 18.738281 31.582031 L 17.722656 31.582031 L 17.632812 31.332031 L 16 31.160156 L 15.734375 31.414062 L 15.070312 31.246094 L 14.980469 30.660156 L 14.671875 30.613281 L 14.316406 31.246094 L 13.125 31.203125 C 13.339844 31.304688 15.121094 32.367188 17.855469 32.589844 C 21.480469 32.882812 23.207031 32.003906 23.207031 32.003906 L 23.074219 31.875 Z "/>
</g>
</g>
</svg>
